packages/core/src/svgs/tokens/branded/PERC.svg

<svg width="24" height="24" viewBox="0 0 24 24" fill="none" xmlns="http://www.w3.org/2000/svg">
<path fill-rule="evenodd" clip-rule="evenodd" d="M22 12C22 14.6522 20.9464 17.1957 19.0711 19.071C17.1957 20.9464 14.6522 22 12 22C9.34784 22 6.80429 20.9464 4.92892 19.071C3.05357 17.1957 2 14.6522 2 12C2 9.34785 3.05357 6.80429 4.92892 4.92892C6.80429 3.05357 9.34784 2 12 2C14.6522 2 17.1957 3.05357 19.0711 4.92892C20.9464 6.80429 22 9.34785 22 12ZM20.2353 12C20.2353 14.1842 19.3676 16.2788 17.8232 17.8232C16.2788 19.3676 14.1841 20.2353 12 20.2353C9.81588 20.2353 7.72118 19.3676 6.17676 17.8232C4.63234 16.2788 3.7647 14.1842 3.7647 12C3.7647 9.81589 4.63234 7.72118 6.17676 6.17676C7.72118 4.63234 9.81588 3.7647 12 3.7647C14.1841 3.7647 16.2788 4.63234 17.8232 6.17676C19.3676 7.72118 20.2353 9.81589 20.2353 12ZM13.7647 15.3412V5.5294L15.5294 6.49999V16.1647L13.7647 15.3412ZM8.47057 15.3706V5.55294L10.2353 6.52352V16.1882L8.47057 15.3647V15.3706ZM6.11764 11.0177V14.5059L7.88234 15.2823V11.9411L6.11764 11.0235V11.0177ZM16.1177 11.0177V14.5059L17.8823 15.2823V11.9411L16.1177 11.0235V11.0177ZM11.1176 7.83528V17.6471L12.8823 18.4706V8.80587L11.1176 7.83528Z" fill="#009BA0"/>
</svg>

<svg xmlns="http://www.w3.org/2000/svg" width="24" height="24" fill="none" viewBox="0 0 24 24">
    <path fill="#009BA0" fill-rule="evenodd" d="M22 12a10 10 0 1 1-20 0 10 10 0 0 1 20 0m-1.765 0a8.235 8.235 0 1 1-16.47 0 8.235 8.235 0 0 1 16.47 0m-6.47 3.341V5.53l1.764.971v9.665zm-5.294.03V5.553l1.764.97v9.665l-1.764-.823zm-2.353-4.353v3.488l1.764.776v-3.34l-1.764-.918zm10 0v3.488l1.764.776v-3.34l-1.764-.918zm-5-3.183v9.812l1.764.824V8.806z" clip-rule="evenodd"/>
</svg>
